public/logos/logo-dark.svg

<svg width="2458" height="714" viewBox="0 0 2458 714" fill="none" xmlns="http://www.w3.org/2000/svg">
<g clip-path="url(#clip0_4062_2426)">
<path d="M535.399 131.6L445.399 5.3001C440.299 -1.7999 429.699 -1.7999 424.699 5.3001C402.599 36.3001 351.399 108.1 334.699 131.6C331.299 136.4 330.299 142.4 331.899 148C385.199 331 394.699 504.5 400.899 701.2C401.099 708.1 406.699 713.5 413.599 713.5H456.399C463.299 713.5 468.899 708 469.099 701.2C475.299 504.6 484.799 330.9 538.099 147.9C539.699 142.3 538.699 136.2 535.299 131.5H535.399V131.6ZM275.599 699.1C276.699 706.8 270.699 713.6 262.999 713.6H226.699C220.699 713.6 215.599 709.4 214.299 703.6C174.699 524.6 93.0992 349.9 1.79921 193.2C-4.80079 181.9 7.79921 169.2 19.1992 175.7L125.199 237C128.399 238.8 130.899 241.5 132.599 244.8C205.699 386.9 253.599 539.6 275.599 699.2V699.1ZM319.999 243.5C352.799 396.1 360.599 537.8 365.499 700.5C365.699 707.7 359.999 713.6 352.799 713.6H324.399C317.999 713.6 312.599 708.9 311.799 702.5C290.599 543.2 244.799 390.6 173.999 248.2C171.299 242.7 171.399 236.2 174.199 230.8L196.799 187.9C201.899 178.3 213.899 174.8 223.299 180.3C249.899 195.7 288.299 217.9 310.899 230.9C315.599 233.6 318.899 238.2 319.999 243.5ZM696.099 248.2C625.199 390.6 579.399 543.3 558.299 702.5C557.499 708.8 552.099 713.6 545.699 713.6H517.299C510.099 713.6 504.299 707.6 504.599 700.5C509.499 537.8 517.299 396.2 550.099 243.5C551.199 238.2 554.499 233.6 559.199 230.9C581.799 217.8 620.299 195.6 646.799 180.3C656.199 174.9 668.199 178.3 673.299 187.9L695.899 230.8C698.799 236.2 698.899 242.7 696.099 248.2ZM868.199 193.2C776.899 349.9 695.299 524.6 655.799 703.6C654.499 709.4 649.299 713.6 643.399 713.6H607.099C599.399 713.6 593.399 706.8 594.499 699.1C616.499 539.5 664.399 386.8 737.499 244.7C739.199 241.4 741.799 238.7 744.899 236.9L850.899 175.6C862.199 169.1 874.899 181.8 868.299 193.1H868.199V193.2Z" fill="url(#paint0_radial_4062_2426)"/>
<path fill-rule="evenodd" clip-rule="evenodd" d="M1182.1 351.7C1201.8 411.3 1152 446.6 1095.1 444.2C1043.2 445.8 995.999 419.2 998.199 362.6H1056.1C1056.5 383.9 1074 394.9 1094.3 394.2C1104.9 394.2 1114.4 392.3 1120.6 385.1C1128.5 375 1122.1 363.4 1110.2 359.3C1084 349.6 1040.3 346.9 1021 327C999.699 309.4 998.999 269.9 1015.4 248.1C1033.1 223.9 1063.4 214 1094.8 214C1140.5 212.5 1184 239.2 1183.4 287.2H1125.1C1124.6 264.6 1097.1 260.3 1079.4 266.3C1069.6 269.3 1065 279.6 1069.1 288.4C1075.1 297.7 1086.8 299.8 1097.9 302.5C1130.9 308.8 1170 317.9 1182.3 351.6H1182.1V351.7ZM1342.4 355.7C1343.7 384.2 1311.4 400.4 1287.8 387C1276.5 380.6 1270.4 368.8 1270.5 355.7V217.1H1209.5V360.9C1208 414.6 1255.5 445.8 1306.4 444.2C1357.1 445.8 1404.7 414.3 1403.3 360.9V217.1H1342.3V355.7H1342.4ZM1493.2 217.1H1432.2V441.6H1583.9V392.5H1493.1V217.1H1493.2ZM1770.8 217.1H1575.7V266.2H1643.2V441.6H1703.3V266.2H1770.8V217.1ZM1915.4 217.1L1989.5 441.6H1923.7L1910.7 398.6H1836.7L1823.7 441.6H1757.9L1832 217.1H1915.4ZM1897 353L1874.6 278.9H1872.8L1850.4 353H1897ZM2144.4 334.6H2142.6L2062.8 217.1H2011.1V441.6H2072V323.7H2073.3L2154.4 441.6H2205.3V217.1H2144.3V334.6H2144.4ZM2458.3 441.6H2392.5L2379.5 398.6H2305.5L2292.5 441.6H2226.7L2300.8 217.1H2384.1L2458.2 441.6H2458.3ZM2365.8 353L2343.4 278.9H2341.6L2319.2 353H2365.8Z" fill="white"/>
<path d="M1781.4 540.3C1808.6 539.7 1837.4 556 1838.3 584.7H1818.6C1814.3 542.8 1725.9 553.6 1746.8 597.9C1761.4 616.1 1787.8 614.7 1807.9 623.6C1836.6 632.9 1850.4 663.2 1833.5 689.9C1822 707.1 1802.1 714 1779.8 713.9C1750 714.7 1721.1 698.6 1719.3 667.5H1740.3C1743.7 701.5 1797.5 703.2 1815.4 681C1831.8 656.3 1810.2 642.2 1787.3 636.9C1770.8 632.4 1746.2 626.1 1735.3 614.8C1721 602.7 1720.4 577.2 1731.4 562.6C1742.6 547.3 1761.7 540.2 1781.3 540.2L1781.4 540.3ZM1929.1 540.3C1956.3 539.7 1985.1 556 1986 584.7H1966.3C1962 542.8 1873.6 553.6 1894.5 597.9C1909 616.1 1935.5 614.7 1955.6 623.6C1984.3 632.9 1998.1 663.3 1981.2 689.9C1969.7 707.1 1949.8 714 1927.5 713.9C1897.7 714.7 1868.8 698.6 1867 667.5H1888.1C1891.5 701.5 1945.3 703.2 1963.2 681C1979.6 656.3 1958 642.2 1935.1 636.9C1918.6 632.4 1894 626.1 1883.1 614.8C1868.8 602.7 1868.2 577.2 1879.2 562.6C1890.4 547.3 1909.6 540.2 1929.1 540.2V540.3ZM1107.7 560.7H1026.5V617.6H1102.5V635.7H1026.5V692.9H1109V711H1006.1V542.6H1107.7V560.7ZM1197.8 612.7H1199.1L1242.5 542.7H1266.5L1213.5 626.9L1266.5 711.1H1242.5L1199.1 642.4H1197.8L1154.4 711.1H1130.4L1184.7 626.9L1130.4 542.7H1154.4L1197.8 612.7ZM1349.9 542.6C1372.8 542.6 1391.1 550.1 1401 568.9C1413 593.1 1407.7 628.5 1382.4 642.3C1367.5 652.5 1331.9 648.9 1313.3 649.5V711H1292.9V542.6H1349.9ZM1313.4 631.4C1344 630.6 1387 639.7 1387.1 595.9C1387.1 552.3 1343.7 561.5 1313.4 560.7V631.4ZM1496.9 542.6C1519.5 542.6 1537.9 549.2 1548 567.7C1561.4 593.4 1553.1 632.5 1522.6 641.6L1560.6 711H1536.9L1501.4 645.2C1500.7 645.4 1462.4 645.2 1460.3 645.2V711H1439.9V542.6H1496.9ZM1460.4 626.8C1488.2 625.7 1535 635.6 1534.1 594.2C1534.7 552 1489.1 561.7 1460.4 560.7V626.8ZM1689.7 560.7H1608.5V617.6H1684.5V635.7H1608.5V692.9H1691V711H1588.1V542.6H1689.7V560.7Z" fill="white"/>
</g>
<defs>
<radialGradient id="paint0_radial_4062_2426" cx="0" cy="0" r="1" gradientUnits="userSpaceOnUse" gradientTransform="translate(435 714) rotate(-90) scale(714 714)">
<stop stop-color="#622A12"/>
<stop offset="0.7" stop-color="#FF671F"/>
</radialGradient>
<clipPath id="clip0_4062_2426">
<rect width="2458" height="714" fill="white"/>
</clipPath>
</defs>
</svg>

<?xml version="1.0" encoding="UTF-8"?>
<svg id="Layer_1" xmlns="http://www.w3.org/2000/svg" xmlns:xlink="http://www.w3.org/1999/xlink" version="1.1" viewBox="0 0 2458 714">
  <!-- Generator: Adobe Illustrator 29.8.5, SVG Export Plug-In . SVG Version: 2.1.1 Build 2)  -->
  <defs>
    <style>
      .st0 {
        fill: none;
      }

      .st1, .st2 {
        fill: #451e0d;
      }

      .st2 {
        fill-rule: evenodd;
      }

      .st3 {
        fill: url(#radial-gradient);
      }

      .st4 {
        clip-path: url(#clippath);
      }
    </style>
    <clipPath id="clippath">
      <rect class="st0" y="0" width="2458" height="714"/>
    </clipPath>
    <radialGradient id="radial-gradient" cx="808.1" cy="655.4" fx="808.1" fy="655.4" r="1" gradientTransform="translate(468395.8 577685) rotate(-90) scale(714 -714)" gradientUnits="userSpaceOnUse">
      <stop offset="0" stop-color="#622a12"/>
      <stop offset=".7" stop-color="#ff671f"/>
    </radialGradient>
  </defs>
  <g class="st4">
    <g>
      <path class="st3" d="M535.4,131.6L445.4,5.3c-5.1-7.1-15.7-7.1-20.7,0-22.1,31-73.3,102.8-90,126.3-3.4,4.8-4.4,10.8-2.8,16.4,53.3,183,62.8,356.5,69,553.2.2,6.9,5.8,12.3,12.7,12.3h42.8c6.9,0,12.5-5.5,12.7-12.3,6.2-196.6,15.7-370.3,69-553.3,1.6-5.6.6-11.7-2.8-16.4h0ZM275.6,699.1c1.1,7.7-4.9,14.5-12.6,14.5h-36.3c-6,0-11.1-4.2-12.4-10C174.7,524.6,93.1,349.9,1.8,193.2c-6.6-11.3,6-24,17.4-17.5l106,61.3c3.2,1.8,5.7,4.5,7.4,7.8,73.1,142.1,121,294.8,143,454.4h0ZM320,243.5c32.8,152.6,40.6,294.3,45.5,457,.2,7.2-5.5,13.1-12.7,13.1h-28.4c-6.4,0-11.8-4.7-12.6-11.1-21.2-159.3-67-311.9-137.8-454.3-2.7-5.5-2.6-12,.2-17.4l22.6-42.9c5.1-9.6,17.1-13.1,26.5-7.6,26.6,15.4,65,37.6,87.6,50.6,4.7,2.7,8,7.3,9.1,12.6ZM696.1,248.2c-70.9,142.4-116.7,295.1-137.8,454.3-.8,6.3-6.2,11.1-12.6,11.1h-28.4c-7.2,0-13-6-12.7-13.1,4.9-162.7,12.7-304.3,45.5-457,1.1-5.3,4.4-9.9,9.1-12.6,22.6-13.1,61.1-35.3,87.6-50.6,9.4-5.4,21.4-2,26.5,7.6l22.6,42.9c2.9,5.4,3,11.9.2,17.4ZM868.2,193.2c-91.3,156.7-172.9,331.4-212.4,510.4-1.3,5.8-6.5,10-12.4,10h-36.3c-7.7,0-13.7-6.8-12.6-14.5,22-159.6,69.9-312.3,143-454.4,1.7-3.3,4.3-6,7.4-7.8l106-61.3c11.3-6.5,24,6.2,17.4,17.5h-.1Z"/>
      <path class="st2" d="M1182.1,351.7c19.7,59.6-30.1,94.9-87,92.5-51.9,1.6-99.1-25-96.9-81.6h57.9c.4,21.3,17.9,32.3,38.2,31.6,10.6,0,20.1-1.9,26.3-9.1,7.9-10.1,1.5-21.7-10.4-25.8-26.2-9.7-69.9-12.4-89.2-32.3-21.3-17.6-22-57.1-5.6-78.9,17.7-24.2,48-34.1,79.4-34.1,45.7-1.5,89.2,25.2,88.6,73.2h-58.3c-.5-22.6-28-26.9-45.7-20.9-9.8,3-14.4,13.3-10.3,22.1,6,9.3,17.7,11.4,28.8,14.1,33,6.3,72.1,15.4,84.4,49.1h-.2ZM1342.4,355.7c1.3,28.5-31,44.7-54.6,31.3-11.3-6.4-17.4-18.2-17.3-31.3v-138.6h-61v143.8c-1.5,53.7,46,84.9,96.9,83.3,50.7,1.6,98.3-29.9,96.9-83.3v-143.8h-61v138.6h0ZM1493.2,217.1h-61v224.5h151.7v-49.1h-90.8v-175.4h0ZM1770.8,217.1h-195.1v49.1h67.5v175.4h60.1v-175.4h67.5v-49.1ZM1915.4,217.1l74.1,224.5h-65.8l-13-43h-74l-13,43h-65.8l74.1-224.5h83.4ZM1897,353l-22.4-74.1h-1.8l-22.4,74.1h46.6ZM2144.4,334.6h-1.8l-79.8-117.5h-51.7v224.5h60.9v-117.9h1.3l81.1,117.9h50.9v-224.5h-61v117.5h0ZM2458.3,441.6h-65.8l-13-43h-74l-13,43h-65.8l74.1-224.5h83.3l74.1,224.5h.1ZM2365.8,353l-22.4-74.1h-1.8l-22.4,74.1h46.6Z"/>
      <path class="st1" d="M1781.4,540.3c27.2-.6,56,15.7,56.9,44.4h-19.7c-4.3-41.9-92.7-31.1-71.8,13.2,14.6,18.2,41,16.8,61.1,25.7,28.7,9.3,42.5,39.6,25.6,66.3-11.5,17.2-31.4,24.1-53.7,24-29.8.8-58.7-15.3-60.5-46.4h21c3.4,34,57.2,35.7,75.1,13.5,16.4-24.7-5.2-38.8-28.1-44.1-16.5-4.5-41.1-10.8-52-22.1-14.3-12.1-14.9-37.6-3.9-52.2,11.2-15.3,30.3-22.4,49.9-22.4h0ZM1929.1,540.3c27.2-.6,56,15.7,56.9,44.4h-19.7c-4.3-41.9-92.7-31.1-71.8,13.2,14.5,18.2,41,16.8,61.1,25.7,28.7,9.3,42.5,39.7,25.6,66.3-11.5,17.2-31.4,24.1-53.7,24-29.8.8-58.7-15.3-60.5-46.4h21.1c3.4,34,57.2,35.7,75.1,13.5,16.4-24.7-5.2-38.8-28.1-44.1-16.5-4.5-41.1-10.8-52-22.1-14.3-12.1-14.9-37.6-3.9-52.2,11.2-15.3,30.4-22.4,49.9-22.4h0ZM1107.7,560.7h-81.2v56.9h76v18.1h-76v57.2h82.5v18.1h-102.9v-168.4h101.6v18.1ZM1197.8,612.7h1.3l43.4-70h24l-53,84.2,53,84.2h-24l-43.4-68.7h-1.3l-43.4,68.7h-24l54.3-84.2-54.3-84.2h24l43.4,70ZM1349.9,542.6c22.9,0,41.2,7.5,51.1,26.3,12,24.2,6.7,59.6-18.6,73.4-14.9,10.2-50.5,6.6-69.1,7.2v61.5h-20.4v-168.4h57ZM1313.4,631.4c30.6-.8,73.6,8.3,73.7-35.5,0-43.6-43.4-34.4-73.7-35.2v70.7ZM1496.9,542.6c22.6,0,41,6.6,51.1,25.1,13.4,25.7,5.1,64.8-25.4,73.9l38,69.4h-23.7l-35.5-65.8c-.7.2-39,0-41.1,0v65.8h-20.4v-168.4h57ZM1460.4,626.8c27.8-1.1,74.6,8.8,73.7-32.6.6-42.2-45-32.5-73.7-33.5v66.1ZM1689.7,560.7h-81.2v56.9h76v18.1h-76v57.2h82.5v18.1h-102.9v-168.4h101.6v18.1Z"/>
    </g>
  </g>
</svg>
